X:1
T:James Gibb editions
T:Assumpta est Maria - Ravanello
T:#
%%score { 1 | 2 } 3
L:1/8
Q:1/4=76
M:4/4
K:F
V:1 treble nm="Soprano I" snm="S"
V:2 treble 
V:3 treble nm="Alto" snm="A"
V:1
"^Assumpta est Maria, op.66/29""^Oreste Ravanello\n (1871-1938)""^adagio"!pp! c2 | c3 c"^," c2 A2 | %2
w: As-|sum- pta est Ma-|
 c4 c2 c2 | (f4 d4) | e4 z4 | e2 e2 g3 g |[M:4/4]"^," e2 g4 f2 | (f2 ed) e4 | f4 z4 | %9
w: ri- a in|coe\- *|lum:|gau- dent an- ge-|li, gau- dent|an\- * * ge-|li,|
!f! !^!c2 !^!c2 (defd) |"^," e2 e4 e2 | (f2 d2 e2)"^," f2 | (g3 f e2 d2 | c2 d2 G2 A2 | G6) cB | %15
w: col- lau- dan\- * * *|tes be- ne-|dic\- * * unt|Do\- * * *||* mi\- *|
"^," A4"^meno"[Q:1/4=68] A2 c2 |[Q:1/4=67] (f4[Q:1/4=65] g4- | %17
w: num. Al- le-|lu\- *|
[Q:1/4=64] g2[Q:1/4=63] f4[Q:1/4=62] e2) |[Q:1/4=62] !fermata!f8 |] %19
w: |ia.|
V:2
!pp! A2 | A3 A"^," A2 F2 | G4 A2 G2 | (A4 =B4) | c4 G2 G2 | c3 c"^," c2 c2- |[M:4/4] c2 B2 A3 A | %7
w: As-|sum- pta est Ma-|ri- a in|coe\- *|lum: gau- dent|an- ge- li, gau\-|* dent an- ge-|
 G4!f! !^!G2 !^!G2 | (ABcA d2 c2- | cBAG FGA=B) |"^," c2 c4 B2 | (A2 B4 A2) |"^," G2 c4 B2- | %13
w: li, col- lau-|dan\- * * * * *||tes be- ne-|dic\- * *|unt Do\- *|
 BAGF E2 F2- | F2 ED E4 | F4 F2 A2 | A2 d4 c2- | c4 B4- | B2 AG !fermata!A4 |] %19
w: |* * * mi-|num. Al- le-|lu\- * *||* * * ia.|
V:3
!pp! F2 | F3 F"^," F2 F2 | (F2 E2) F2 E2 | (D4 G4) | C4 z4 | C2 C2 E3 E |[M:4/4] C2 C4 C2 | %7
w: As-|sum- pta est Ma-|ri\- * a in|coe\- *|lum:|gau- dent an- ge-|li, gau- dent|
 C3 C C2!f! CC | (FGAF B2 A2- | AGFE D4) |"^," C2 C4 C2 | D2"^," G4 (F2- | FE/D/ ED C2 DE | %13
w: an- ge- li, col- lau-|dan\- * * * * *||tes be- ne-|dic- unt Do\-||
 F2 B,2 C4- | C4) C4 | F4 F3 E | (D4 E3 F/G/ | A4 G2 C2) | !fermata!F8 |] %19
w: |* mi-|num. Al- le-|lu\- * * *||ia.|

